!!!COM: Johann Sebastian Bach
!!!OTL: Brandenburg Concerto No. 2 in F Major (movement 3)
!!!system-decoration: ([(s1[(s2,s3,s4)]{(s5,s6)}s7,s8,s9)])
**kern
*part1
*staff1
*I"Trumpet
*clefG2
*k[b-]
*M2/4
!	!	!	!	!	!	!	!	!LO:TX:a:i:t=Allegro assai
8ffL
8cccJ
8cccLT
16bb-y
16cccJ
=2
8dddL
16ccc
16bb-yJ
8cccL
8fffJ
.
=3
8cccLT
16aa
16bb-yJ
8cccL
16bb-y
16cccJ
=4
8dddLT
16ccc
16bb-yJ
16cccL
16bb-y
16aa
16cccJ
=5
16bb-yL
16aa
16gg
16bb-yJ
16aaL
16gg
16ff
16aaJ
=6
16ggL
16ff
16gg
16aaJ
16bb-yL
16aa
16gg
16ffJ
=7
8ggL
8ccJ
4ccc
.
.
=8
4ccc
.
.
4ccc
.
.
=9
4ccc
.
.
4ccc
.
.
=10
8ccc
4ddd
.
.
.
[8ccc
.
=11
8cccL]
.
8bbnJ
.
16cccL
16bb
16aa
16cccJ
=12
16bbnL
16aa
16bb
16cccJ
16dddL
16ccc
16bb
16aaJ
=13
16bbnL
16aa
16gg
16aaJ
16bbL
16ccc
16aa
16bbJ
=14
16cccL
16ddd
16bbn
16cccJ
16dddL
16bb
16ccc
16dddJ
=15
8ggL
.
8ccJ
.
[4ccc
.
.
.
=16
8cccL]
.
16bb-y
16aaJ
8bb-yL
.
8bb-yJ
.
=17
16aaL
16gg
16ff
16ggJ
16aaL
16bb-y
16gg
16aaJ
=18
16bb-yL
16ccc
16aa
16bb-yJ
16cccL
16ddd
16bb-y
16cccJ
=19
16dddL
16ccc
16ddd
16eee-J
16dddL
16ccc
16bb-y
16aaJ
=20
16ggL
16ff
16gg
16aaJ
16bb-yL
16aa
16bb-y
16ggJ
=21
8aaL
16ff
16ggJ
8aaL
16gg
16aaJ
=22
8bb-yL
16aa
16ggJ
8aaL
16ff
16ggJ
=23
8aaL
16ff
16ggJ
8aaL
16gg
16aaJ
=24
8bb-y
8r
.
8aa
.
8r
.
=25
8gg
.
8r
.
8ff
.
8r
.
=26
8cc
.
8r
.
8f
.
8r
.
=27
8cc
8r
.
4r
.
.
=28
2r
.
.
.
.
.
=29
2r
.
.
.
.
.
=30
2r
.
.
.
.
.
.
=31
2r
.
.
.
.
.
.
.
=32
2r
.
.
.
.
.
.
.
=33
2r
.
.
.
=34
2r
.
.
.
.
.
.
.
=35
2r
.
.
.
.
.
.
.
=36
2r
.
.
.
.
.
.
.
=37
2r
.
.
.
.
.
.
.
=38
2r
.
.
.
.
.
.
.
=39
2r
.
.
.
.
.
.
.
=40
2r
.
.
.
.
.
.
.
=41
8ccL
8ggJ
.
8ggL
16ff
16ggJ
=42
8aaL
16gg
16ffJ
8ggL
8cccJ
.
=43
8ggL
16aa
16ffJ
8ggL
16ff
16ggJ
=44
8aaL
16gg
16ffJ
16ggL
16ccc
16ddd
16eeeJ
=45
16fffL
16eee
16ddd
16fffJ
16eeeL
16ddd
16ccc
16eeeJ
=46
16dddL
16ccc
16ddd
16eeeJ
16fffL
16eee
16ddd
16cccJ
=47
8dddL
.
8ggJ
.
8r
.
8gg
.
=48
8cccL
.
8cccJ
.
8cccL
.
16bbn
16aaJ
=49
8bbnL
.
8bbJ
.
8bbL
.
16ccc
16bbJ
=50
8aaL
.
8aaJ
.
8aaL
.
16gg
16ffJ
=51
8ggL
.
8ggJ
.
8ggL
.
16aa
16ggJ
=52
8ffL
.
8aaJ
.
8bbnL
.
8dddJ
.
=53
16eeeL
16fff
16eee
16dddJ
16cccL
16bbn
16aa
16ggJ
=54
16aaL
16bbn
16gg
16aaJ
16bbL
16ccc
16aa
16bbJ
=55
16cccL
16ddd
16bbn
16cccJ
16dddL
16ccc
16bb
16aaJ
=56
8ggL
.
16ccc
16dddJ
8.bbnL
.
.
16cccJ
=57
4ccc
.
.
4r
.
.
=58
2r
.
.
.
.
.
=59
2r
.
.
.
.
.
=60
2r
.
.
.
.
.
.
=61
2r
.
.
.
.
.
.
.
=62
2r
.
.
.
.
.
.
.
=63
2r
.
.
.
.
.
.
.
=64
2r
.
.
.
.
.
.
.
=65
2r
.
.
.
.
.
.
.
=66
2r
.
.
.
.
.
=67
2r
.
.
.
.
.
=68
2r
.
.
.
.
.
=69
2r
.
.
.
.
.
.
=70
2r
.
.
.
.
.
.
.
=71
2r
.
.
.
.
.
.
.
=72
8a
.
8r
.
8a
.
8r
.
=73
8a
.
8r
.
8a
.
8r
.
=74
8a
.
8r
.
8a
.
8r
.
=75
8a
.
8r
.
8a
.
8r
.
=76
8a
.
8r
.
8a
.
8r
.
=77
8a
.
8r
.
8a
.
8r
.
=78
8a
.
8r
.
8a
.
8r
.
=79
8a
.
8r
.
8r
.
8ff
.
=80
8bb-yL
.
8bb-yJ
.
8bb-yL
.
16aa
16ggJ
=81
8aaL
.
8aaJ
.
8aaL
.
16bb-y
16aaJ
=82
8ggL
.
8ggJ
.
8ggL
.
16ff
16ee-J
=83
8ffL
.
8ffJ
.
8ffL
.
16gg
16ffJ
=84
8ee-L
.
8eee-J
.
4aaT
.
.
.
=85
4gg
.
.
.
4r
.
.
.
=86
2r
.
.
.
.
.
.
.
=87
2r
.
.
.
.
.
.
.
=88
2r
.
.
.
.
.
.
.
=89
2r
.
.
.
.
.
.
.
=90
2r
.
.
.
.
.
.
.
=91
2r
.
.
.
.
.
.
.
=92
2r
.
.
.
.
.
.
.
=93
8r
.
8gg
.
[4ccc
.
.
.
=94
8cccL]
.
16bb-y
16aaJ
8bb-yL
.
8bb-yJ
.
=95
16aaL
16gg
16ff
16ggJ
16aaL
16bb-y
16gg
16aaJ
=96
16bb-yL
16ccc
16aa
16bb-yJ
16cccL
16aa
16bb-y
16cccJ
=97
16ffL
16aa
16gg
16aaJ
8bb-yL
.
8bb-yJ
.
=98
8bb-yL
.
16ccc
16bb-yJ
8aaL
.
8aaJ
.
=99
8aaL
.
16bb-y
16aaJ
8ggL
.
8ggJ
.
=100
8ggL
.
16aa
16ggJ
8ffL
.
8ffJ
.
=101
8ffL
.
16gg
16ffJ
8ee-L
.
8eee-J
.
=102
8eee-L
.
16fff
16eee-yJ
8dddL
.
8dddJ
.
=103
8dddL
.
16eee-
16dddJ
16cccL
16bb-y
16aa
16ggJ
=104
8ff
.
8r
.
8ff
.
8r
.
=105
8ff
.
8r
.
8ff
.
8r
.
=106
8gg
.
8r
.
8ff
8r
.
=107
8ffL
16bb-y
16cccJ
8dddL
16ccc
16dddJ
=108
8eee-L
16ddd
16cccJ
8dddL
16bb-y
16cccJ
=109
8dddL
16bb-y
16cccJ
8dddL
[8dddJ
.
=110
8ddd]
4ccc
.
.
.
[8bb-y
.
=111
8bb-yL]
.
8aaJ
.
16bb-yL
16aa
16gg
16bb-yJ
=112
16aaL
16gg
16aa
16bb-yJ
16cccL
16bb-y
16aa
16ggJ
=113
8aa
8r
.
8f
8r
.
=114
8f
8r
.
8f
8r
.
=115
8f
8r
.
8f
8r
.
=116
8ff
4gg
.
.
.
[8ff
.
=117
8ffL]
.
8eeJT
.
16ffL
16gg
16aa
16ffJ
=118
4ccc
.
.
.
4r
.
.
.
=119
8cc
.
8r
.
8cc
.
8r
.
=120
8cc
.
8r
.
8cc
.
8r
.
=121
8cc
.
8r
.
8cc
.
8r
.
=122
8cc
.
8r
.
8cc
.
8r
.
=123
8cc
.
8r
.
8cc
.
8r
.
=124
8cc
.
8r
.
8cc
.
8r
.
=125
8cc
.
8r
.
8cc
.
8r
.
=126
8aL
.
16aa
16bb-yJ
16cccL
16ddd
16bb-y
16cccJ
=127
16dddL
16eee-
16ccc
16dddJ
16eee-yL
16ccc
16ddd
16eee-yJ
=128
16aaL
16ccc
16ff
16ggJ
16aaL
16bb-y
16gg
16aaJ
=129
16bb-yL
16ccc
16aa
16bb-yJ
16cccL
16aa
16bb-y
16cccJ
=130
16ffL
16aa
16gg
16aaJ
16bb-yL
16ccc
16aa
16bb-yJ
=131
16cccL
16aa
16ff
16ggJ
16aaL
16bb-y
16ccc
16aaJ
=132
16dddL
16eee-
16ddd
16cccJ
16bb-yL
16aa
16gg
16ffJ
=133
4ccc
.
.
.
4ccc
.
.
.
=134
4ccc
.
.
.
4ccc
.
.
.
=135
2r
.
.
.
.
.
.
=136
8ffL
8cccJ
.
8cccL
16bb-y
16cccJ
=137
8dddL
16ccc
16bb-yJ
8cccL
8fffJ
.
=138
8cccL
16aa
16bb-yJ
8cccL
16bb-y
16cccJ
=139
8dddL
16ccc
16bb-yJ
4ccc;
==
*-
